public/assets/img/logo.svg

<svg xmlns="http://www.w3.org/2000/svg" style="isolation:isolate" viewBox="603.375 478.438 645.898 95.557" width="861.197" height="127.409"><path d="M657.965 553.438l-45.215-68.75v68.75h-9.375v-75H619l43.701 65.625 43.701-65.625h14.942v75h-9.375v-67.725l-44.531 67.725h-9.473zm111.816 1.074q-9.375 0-15.918-1.294-6.543-1.294-10.644-4.468-4.102-3.174-5.957-8.496-1.856-5.322-1.856-13.379 0-9.229 1.856-15.259 1.855-6.03 5.957-9.595 4.101-3.564 10.644-4.98 6.543-1.416 15.918-1.416 6.69 0 11.597.977 4.907.976 8.398 2.832 3.492 1.855 5.664 4.492 2.173 2.637 3.418 5.542 1.246 2.905 1.709 6.811.464 3.907.464 8.252l-.781 3.125h-55.469q0 6.446 1.27 10.572 1.269 4.126 4.199 6.03 2.93 1.904 7.715 2.417 4.785.513 11.816.513 6.446 0 10.669-.367 4.224-.366 6.714-1.391 2.49-1.026 3.491-2.857 1.001-1.831 1.001-4.76h9.375q0 4.541-1.587 7.739-1.587 3.198-5.249 5.176-3.662 1.977-9.643 2.88-5.982.904-14.771.904zm0-51.074q-4.687 0-8.374.195-3.686.195-6.445.854-2.759.659-4.712 1.905-1.953 1.245-3.149 2.929-1.197 1.685-1.758 4.737-.562 3.051-.562 7.348h46.875q0-5.713-1.22-8.96-1.221-3.247-3.858-5.346-2.637-2.1-6.787-2.881-4.15-.781-10.01-.781zm76.563 0q-5.469 0-9.448.341-3.98.342-6.763 1.221t-4.517 2.441q-1.733 1.563-2.685 4.004-.952 2.442-1.27 5.884-.317 3.442-.317 8.081 0 4.59.317 7.984.318 3.393 1.27 5.81t2.685 3.98q1.734 1.562 4.517 2.441 2.783.879 6.763 1.221 3.979.342 9.448.342 4.687 0 8.349-.22t6.446-.977q2.783-.757 4.712-2.197 1.928-1.44 3.149-3.857 1.221-2.417 1.782-6.006.562-3.589.562-8.667 0-5.078-.562-8.692-.561-3.613-1.782-6.03-1.221-2.417-3.149-3.833-1.929-1.416-4.712-2.148-2.784-.733-6.446-.928-3.662-.195-8.349-.195zm34.375-6.25v48.437q0 8.203-1.856 13.623-1.855 5.42-5.957 8.765-4.101 3.344-10.644 4.663-6.543 1.318-15.918 1.318-8.789 0-14.771-.781-5.981-.781-9.643-2.466-3.662-1.684-5.249-4.346-1.587-2.661-1.587-6.469h9.375q0 1.904 1.001 3.125 1.001 1.22 3.491 1.904 2.49.684 6.714.952 4.223.269 10.669.269 7.031 0 11.816-.513 4.785-.513 7.715-2.417 2.93-1.904 4.199-5.762 1.27-3.857 1.27-10.302-.684 1.171-2.173 2.539-1.489 1.367-4.346 2.539-2.856 1.172-7.348 1.953-4.493.781-11.133.781-9.375 0-15.918-1.392-6.543-1.391-10.645-4.76-4.101-3.369-5.957-9.082-1.855-5.713-1.855-14.356 0-8.789 1.855-14.551 1.856-5.761 5.957-9.13 4.102-3.37 10.645-4.737 6.543-1.367 15.918-1.367 6.64 0 11.133.684 4.492.683 7.348 1.709 2.857 1.025 4.346 2.221 1.489 1.197 2.173 2.173v-5.224h9.375zm68.506 56.25v-7.715q-.147.586-2.198 2.929-1.464 1.758-3.906 3.101-2.441 1.343-6.518 2.1-4.078.756-10.718.756-8.838 0-15.088-.903t-10.205-2.783q-3.955-1.88-5.786-4.81-1.831-2.929-1.831-6.982 0-4.248 1.001-7.202 1.001-2.954 2.929-4.956 1.929-2.002 4.663-3.125 2.735-1.123 6.226-1.709 3.491-.586 7.642-.733 4.15-.146 8.837-.146 6.69 0 11.182.561 4.492.562 7.349 1.416 2.856.855 4.321 1.831 1.465.977 2.1 1.807 0-5.469-.464-9.326-.464-3.858-1.514-6.445-1.05-2.588-2.71-4.126-1.66-1.539-4.077-2.32-2.417-.781-5.64-1.001-3.222-.219-7.373-.219-6.445 0-10.693.317-4.248.317-6.738 1.245-2.491.928-3.516 2.563-1.025 1.636-1.025 4.273H896.1q0-4.443 1.587-7.52 1.586-3.076 5.273-5.004 3.686-1.929 9.692-2.808 6.006-.879 14.795-.879 8.594 0 14.551 1.416 5.957 1.416 9.644 4.98 3.686 3.565 5.322 9.595 1.636 6.03 1.636 15.259v26.563h-9.375zm-21.778-6.25q6.201 0 10.376-.586t6.714-1.758q2.539-1.172 3.613-2.93 1.075-1.758 1.075-4.101 0-2.344-1.246-3.98-1.245-1.636-4.15-2.661-2.905-1.026-7.69-1.489-4.785-.464-11.817-.464-7.031 0-11.352.244-4.322.244-6.665 1.123-2.344.879-3.15 2.588-.805 1.709-.805 4.639 0 2.929.854 4.76.855 1.831 3.491 2.857 2.637 1.025 7.593 1.391 4.956.367 13.159.367zm90.528-18.75h7.812q0 7.177-1.172 11.987-1.172 4.809-3.93 7.69-2.759 2.881-7.251 4.102-4.493 1.221-11.084 1.221-6.397 0-10.743-.977-4.345-.977-7.031-3.32-2.685-2.344-3.857-6.25-1.172-3.907-1.172-9.766v-28.223h-11.572v-7.714h11.572v-15.381h9.375v15.381h35.303v7.714h-35.303v28.223q0 4.688.708 7.227.708 2.539 2.27 3.711 1.563 1.171 4.126 1.367 2.564.195 6.275.195 2.929 0 5.249-.098 2.319-.097 4.053-.61 1.733-.513 2.954-1.563 1.22-1.049 1.977-2.954.757-1.904 1.099-4.809.342-2.905.342-7.153zm85.937 25h-9.375v-31.739q0-5.078-.781-8.569-.781-3.491-3.125-5.64-2.344-2.148-6.641-3.1-4.297-.952-11.328-.952-7.617 0-12.475 1.098-4.859 1.099-7.642 3.076-2.783 1.978-3.833 4.761-1.05 2.783-1.05 6.201v34.864h-9.375v-75h9.375v27.636q.977-2.295 2.783-3.955 1.807-1.66 4.175-2.832t5.103-1.88q2.734-.708 5.542-1.098 2.807-.391 5.517-.538 2.71-.146 5.005-.146 6.25 0 10.767.757 4.516.757 7.666 2.246 3.149 1.489 5.053 3.686 1.905 2.198 2.955 5.103 1.049 2.905 1.391 6.494.342 3.589.342 7.788l-.049 31.739zm45.361 1.074q-9.375 0-15.918-1.294-6.542-1.294-10.644-4.468t-5.957-8.496q-1.856-5.322-1.856-13.379 0-9.229 1.856-15.259 1.855-6.03 5.957-9.595 4.102-3.564 10.644-4.98 6.543-1.416 15.918-1.416 6.69 0 11.597.977 4.907.976 8.399 2.832 3.491 1.855 5.664 4.492 2.172 2.637 3.418 5.542 1.245 2.905 1.709 6.811.463 3.907.463 8.252l-.781 3.125h-55.469q0 6.446 1.27 10.572 1.27 4.126 4.199 6.03 2.93 1.904 7.715 2.417 4.785.513 11.816.513 6.446 0 10.669-.367 4.224-.366 6.714-1.391 2.49-1.026 3.491-2.857 1.001-1.831 1.001-4.76h9.375q0 4.541-1.586 7.739-1.587 3.198-5.249 5.176-3.663 1.977-9.644 2.88-5.981.904-14.771.904zm0-51.074q-4.687 0-8.374.195-3.686.195-6.445.854-2.759.659-4.712 1.905-1.953 1.245-3.149 2.929-1.197 1.685-1.758 4.737-.562 3.051-.562 7.348h46.875q0-5.713-1.22-8.96-1.221-3.247-3.858-5.346-2.636-2.1-6.787-2.881-4.15-.781-10.01-.781zm100 12.06h-7.812q0-3.516-.513-5.835-.512-2.319-2.417-3.711-1.904-1.391-5.639-1.953-3.736-.561-10.181-.561-6.299 0-10.254 1.098-3.955 1.099-6.201 3.101-2.246 2.002-3.052 4.785-.806 2.783-.806 6.201v34.815h-9.375v-56.25h9.375v8.935q.489-1.514 1.807-3.345 1.318-1.831 4.004-3.418 2.686-1.587 6.958-2.661t10.669-1.074q7.324 0 11.914 1.294t7.153 3.809q2.564 2.514 3.467 6.225t.903 8.545z" fill="#FFF"/></svg>

<?xml version="1.0" encoding="UTF-8" standalone="no"?><!-- Generator: Gravit.io --><svg xmlns="http://www.w3.org/2000/svg" xmlns:xlink="http://www.w3.org/1999/xlink" style="isolation:isolate" viewBox="603.375 478.438 645.898 95.557" width="645.898pt" height="95.557pt"><path d=" M 657.965 553.438 L 612.75 484.688 L 612.75 553.438 L 603.375 553.438 L 603.375 478.438 L 619 478.438 L 662.701 544.063 L 706.402 478.438 L 721.344 478.438 L 721.344 553.438 L 711.969 553.438 L 711.969 485.713 L 667.438 553.438 L 657.965 553.438 L 657.965 553.438 Z  M 769.781 554.512 L 769.781 554.512 L 769.781 554.512 Q 760.406 554.512 753.863 553.218 L 753.863 553.218 L 753.863 553.218 Q 747.32 551.924 743.219 548.75 L 743.219 548.75 L 743.219 548.75 Q 739.117 545.576 737.262 540.254 L 737.262 540.254 L 737.262 540.254 Q 735.406 534.932 735.406 526.875 L 735.406 526.875 L 735.406 526.875 Q 735.406 517.646 737.262 511.616 L 737.262 511.616 L 737.262 511.616 Q 739.117 505.586 743.219 502.021 L 743.219 502.021 L 743.219 502.021 Q 747.32 498.457 753.863 497.041 L 753.863 497.041 L 753.863 497.041 Q 760.406 495.625 769.781 495.625 L 769.781 495.625 L 769.781 495.625 Q 776.471 495.625 781.378 496.602 L 781.378 496.602 L 781.378 496.602 Q 786.285 497.578 789.776 499.434 L 789.776 499.434 L 789.776 499.434 Q 793.268 501.289 795.44 503.926 L 795.44 503.926 L 795.44 503.926 Q 797.613 506.563 798.858 509.468 L 798.858 509.468 L 798.858 509.468 Q 800.104 512.373 800.567 516.279 L 800.567 516.279 L 800.567 516.279 Q 801.031 520.186 801.031 524.531 L 801.031 524.531 L 800.25 527.656 L 744.781 527.656 L 744.781 527.656 Q 744.781 534.102 746.051 538.228 L 746.051 538.228 L 746.051 538.228 Q 747.32 542.354 750.25 544.258 L 750.25 544.258 L 750.25 544.258 Q 753.18 546.162 757.965 546.675 L 757.965 546.675 L 757.965 546.675 Q 762.75 547.188 769.781 547.188 L 769.781 547.188 L 769.781 547.188 Q 776.227 547.188 780.45 546.821 L 780.45 546.821 L 780.45 546.821 Q 784.674 546.455 787.164 545.43 L 787.164 545.43 L 787.164 545.43 Q 789.654 544.404 790.655 542.573 L 790.655 542.573 L 790.655 542.573 Q 791.656 540.742 791.656 537.813 L 791.656 537.813 L 801.031 537.813 L 801.031 537.813 Q 801.031 542.354 799.444 545.552 L 799.444 545.552 L 799.444 545.552 Q 797.857 548.75 794.195 550.728 L 794.195 550.728 L 794.195 550.728 Q 790.533 552.705 784.552 553.608 L 784.552 553.608 L 784.552 553.608 Q 778.57 554.512 769.781 554.512 Z  M 769.781 503.438 L 769.781 503.438 L 769.781 503.438 Q 765.094 503.438 761.407 503.633 L 761.407 503.633 L 761.407 503.633 Q 757.721 503.828 754.962 504.487 L 754.962 504.487 L 754.962 504.487 Q 752.203 505.146 750.25 506.392 L 750.25 506.392 L 750.25 506.392 Q 748.297 507.637 747.101 509.321 L 747.101 509.321 L 747.101 509.321 Q 745.904 511.006 745.343 514.058 L 745.343 514.058 L 745.343 514.058 Q 744.781 517.109 744.781 521.406 L 744.781 521.406 L 791.656 521.406 L 791.656 521.406 Q 791.656 515.693 790.436 512.446 L 790.436 512.446 L 790.436 512.446 Q 789.215 509.199 786.578 507.1 L 786.578 507.1 L 786.578 507.1 Q 783.941 505 779.791 504.219 L 779.791 504.219 L 779.791 504.219 Q 775.641 503.438 769.781 503.438 Z  M 846.344 503.438 L 846.344 503.438 L 846.344 503.438 Q 840.875 503.438 836.896 503.779 L 836.896 503.779 L 836.896 503.779 Q 832.916 504.121 830.133 505 L 830.133 505 L 830.133 505 Q 827.35 505.879 825.616 507.441 L 825.616 507.441 L 825.616 507.441 Q 823.883 509.004 822.931 511.445 L 822.931 511.445 L 822.931 511.445 Q 821.979 513.887 821.661 517.329 L 821.661 517.329 L 821.661 517.329 Q 821.344 520.771 821.344 525.41 L 821.344 525.41 L 821.344 525.41 Q 821.344 530 821.661 533.394 L 821.661 533.394 L 821.661 533.394 Q 821.979 536.787 822.931 539.204 L 822.931 539.204 L 822.931 539.204 Q 823.883 541.621 825.616 543.184 L 825.616 543.184 L 825.616 543.184 Q 827.35 544.746 830.133 545.625 L 830.133 545.625 L 830.133 545.625 Q 832.916 546.504 836.896 546.846 L 836.896 546.846 L 836.896 546.846 Q 840.875 547.188 846.344 547.188 L 846.344 547.188 L 846.344 547.188 Q 851.031 547.188 854.693 546.968 L 854.693 546.968 L 854.693 546.968 Q 858.355 546.748 861.139 545.991 L 861.139 545.991 L 861.139 545.991 Q 863.922 545.234 865.851 543.794 L 865.851 543.794 L 865.851 543.794 Q 867.779 542.354 869 539.937 L 869 539.937 L 869 539.937 Q 870.221 537.52 870.782 533.931 L 870.782 533.931 L 870.782 533.931 Q 871.344 530.342 871.344 525.264 L 871.344 525.264 L 871.344 525.264 Q 871.344 520.186 870.782 516.572 L 870.782 516.572 L 870.782 516.572 Q 870.221 512.959 869 510.542 L 869 510.542 L 869 510.542 Q 867.779 508.125 865.851 506.709 L 865.851 506.709 L 865.851 506.709 Q 863.922 505.293 861.139 504.561 L 861.139 504.561 L 861.139 504.561 Q 858.355 503.828 854.693 503.633 L 854.693 503.633 L 854.693 503.633 Q 851.031 503.438 846.344 503.438 Z  M 880.719 497.188 L 880.719 545.625 L 880.719 545.625 Q 880.719 553.828 878.863 559.248 L 878.863 559.248 L 878.863 559.248 Q 877.008 564.668 872.906 568.013 L 872.906 568.013 L 872.906 568.013 Q 868.805 571.357 862.262 572.676 L 862.262 572.676 L 862.262 572.676 Q 855.719 573.994 846.344 573.994 L 846.344 573.994 L 846.344 573.994 Q 837.555 573.994 831.573 573.213 L 831.573 573.213 L 831.573 573.213 Q 825.592 572.432 821.93 570.747 L 821.93 570.747 L 821.93 570.747 Q 818.268 569.063 816.681 566.401 L 816.681 566.401 L 816.681 566.401 Q 815.094 563.74 815.094 559.932 L 815.094 559.932 L 824.469 559.932 L 824.469 559.932 Q 824.469 561.836 825.47 563.057 L 825.47 563.057 L 825.47 563.057 Q 826.471 564.277 828.961 564.961 L 828.961 564.961 L 828.961 564.961 Q 831.451 565.645 835.675 565.913 L 835.675 565.913 L 835.675 565.913 Q 839.898 566.182 846.344 566.182 L 846.344 566.182 L 846.344 566.182 Q 853.375 566.182 858.16 565.669 L 858.16 565.669 L 858.16 565.669 Q 862.945 565.156 865.875 563.252 L 865.875 563.252 L 865.875 563.252 Q 868.805 561.348 870.074 557.49 L 870.074 557.49 L 870.074 557.49 Q 871.344 553.633 871.344 547.188 L 871.344 547.188 L 871.344 547.188 Q 870.66 548.359 869.171 549.727 L 869.171 549.727 L 869.171 549.727 Q 867.682 551.094 864.825 552.266 L 864.825 552.266 L 864.825 552.266 Q 861.969 553.438 857.477 554.219 L 857.477 554.219 L 857.477 554.219 Q 852.984 555 846.344 555 L 846.344 555 L 846.344 555 Q 836.969 555 830.426 553.608 L 830.426 553.608 L 830.426 553.608 Q 823.883 552.217 819.781 548.848 L 819.781 548.848 L 819.781 548.848 Q 815.68 545.479 813.824 539.766 L 813.824 539.766 L 813.824 539.766 Q 811.969 534.053 811.969 525.41 L 811.969 525.41 L 811.969 525.41 Q 811.969 516.621 813.824 510.859 L 813.824 510.859 L 813.824 510.859 Q 815.68 505.098 819.781 501.729 L 819.781 501.729 L 819.781 501.729 Q 823.883 498.359 830.426 496.992 L 830.426 496.992 L 830.426 496.992 Q 836.969 495.625 846.344 495.625 L 846.344 495.625 L 846.344 495.625 Q 852.984 495.625 857.477 496.309 L 857.477 496.309 L 857.477 496.309 Q 861.969 496.992 864.825 498.018 L 864.825 498.018 L 864.825 498.018 Q 867.682 499.043 869.171 500.239 L 869.171 500.239 L 869.171 500.239 Q 870.66 501.436 871.344 502.412 L 871.344 502.412 L 871.344 497.188 L 880.719 497.188 L 880.719 497.188 Z  M 949.225 553.438 L 949.225 545.723 L 949.225 545.723 Q 949.078 546.309 947.027 548.652 L 947.027 548.652 L 947.027 548.652 Q 945.563 550.41 943.121 551.753 L 943.121 551.753 L 943.121 551.753 Q 940.68 553.096 936.603 553.853 L 936.603 553.853 L 936.603 553.853 Q 932.525 554.609 925.885 554.609 L 925.885 554.609 L 925.885 554.609 Q 917.047 554.609 910.797 553.706 L 910.797 553.706 L 910.797 553.706 Q 904.547 552.803 900.592 550.923 L 900.592 550.923 L 900.592 550.923 Q 896.637 549.043 894.806 546.113 L 894.806 546.113 L 894.806 546.113 Q 892.975 543.184 892.975 539.131 L 892.975 539.131 L 892.975 539.131 Q 892.975 534.883 893.976 531.929 L 893.976 531.929 L 893.976 531.929 Q 894.977 528.975 896.905 526.973 L 896.905 526.973 L 896.905 526.973 Q 898.834 524.971 901.568 523.848 L 901.568 523.848 L 901.568 523.848 Q 904.303 522.725 907.794 522.139 L 907.794 522.139 L 907.794 522.139 Q 911.285 521.553 915.436 521.406 L 915.436 521.406 L 915.436 521.406 Q 919.586 521.26 924.273 521.26 L 924.273 521.26 L 924.273 521.26 Q 930.963 521.26 935.455 521.821 L 935.455 521.821 L 935.455 521.821 Q 939.947 522.383 942.804 523.237 L 942.804 523.237 L 942.804 523.237 Q 945.66 524.092 947.125 525.068 L 947.125 525.068 L 947.125 525.068 Q 948.59 526.045 949.225 526.875 L 949.225 526.875 L 949.225 526.875 Q 949.225 521.406 948.761 517.549 L 948.761 517.549 L 948.761 517.549 Q 948.297 513.691 947.247 511.104 L 947.247 511.104 L 947.247 511.104 Q 946.197 508.516 944.537 506.978 L 944.537 506.978 L 944.537 506.978 Q 942.877 505.439 940.46 504.658 L 940.46 504.658 L 940.46 504.658 Q 938.043 503.877 934.82 503.657 L 934.82 503.657 L 934.82 503.657 Q 931.598 503.438 927.447 503.438 L 927.447 503.438 L 927.447 503.438 Q 921.002 503.438 916.754 503.755 L 916.754 503.755 L 916.754 503.755 Q 912.506 504.072 910.016 505 L 910.016 505 L 910.016 505 Q 907.525 505.928 906.5 507.563 L 906.5 507.563 L 906.5 507.563 Q 905.475 509.199 905.475 511.836 L 905.475 511.836 L 896.1 511.836 L 896.1 511.836 Q 896.1 507.393 897.687 504.316 L 897.687 504.316 L 897.687 504.316 Q 899.273 501.24 902.96 499.312 L 902.96 499.312 L 902.96 499.312 Q 906.646 497.383 912.652 496.504 L 912.652 496.504 L 912.652 496.504 Q 918.658 495.625 927.447 495.625 L 927.447 495.625 L 927.447 495.625 Q 936.041 495.625 941.998 497.041 L 941.998 497.041 L 941.998 497.041 Q 947.955 498.457 951.642 502.021 L 951.642 502.021 L 951.642 502.021 Q 955.328 505.586 956.964 511.616 L 956.964 511.616 L 956.964 511.616 Q 958.6 517.646 958.6 526.875 L 958.6 526.875 L 958.6 553.438 L 949.225 553.438 L 949.225 553.438 Z  M 927.447 547.188 L 927.447 547.188 L 927.447 547.188 Q 933.648 547.188 937.823 546.602 L 937.823 546.602 L 937.823 546.602 Q 941.998 546.016 944.537 544.844 L 944.537 544.844 L 944.537 544.844 Q 947.076 543.672 948.15 541.914 L 948.15 541.914 L 948.15 541.914 Q 949.225 540.156 949.225 537.813 L 949.225 537.813 L 949.225 537.813 Q 949.225 535.469 947.979 533.833 L 947.979 533.833 L 947.979 533.833 Q 946.734 532.197 943.829 531.172 L 943.829 531.172 L 943.829 531.172 Q 940.924 530.146 936.139 529.683 L 936.139 529.683 L 936.139 529.683 Q 931.354 529.219 924.322 529.219 L 924.322 529.219 L 924.322 529.219 Q 917.291 529.219 912.97 529.463 L 912.97 529.463 L 912.97 529.463 Q 908.648 529.707 906.305 530.586 L 906.305 530.586 L 906.305 530.586 Q 903.961 531.465 903.155 533.174 L 903.155 533.174 L 903.155 533.174 Q 902.35 534.883 902.35 537.813 L 902.35 537.813 L 902.35 537.813 Q 902.35 540.742 903.204 542.573 L 903.204 542.573 L 903.204 542.573 Q 904.059 544.404 906.695 545.43 L 906.695 545.43 L 906.695 545.43 Q 909.332 546.455 914.288 546.821 L 914.288 546.821 L 914.288 546.821 Q 919.244 547.188 927.447 547.188 Z  M 1017.975 528.438 L 1025.787 528.438 L 1025.787 528.438 Q 1025.787 535.615 1024.615 540.425 L 1024.615 540.425 L 1024.615 540.425 Q 1023.443 545.234 1020.685 548.115 L 1020.685 548.115 L 1020.685 548.115 Q 1017.926 550.996 1013.434 552.217 L 1013.434 552.217 L 1013.434 552.217 Q 1008.941 553.438 1002.35 553.438 L 1002.35 553.438 L 1002.35 553.438 Q 995.953 553.438 991.607 552.461 L 991.607 552.461 L 991.607 552.461 Q 987.262 551.484 984.576 549.141 L 984.576 549.141 L 984.576 549.141 Q 981.891 546.797 980.719 542.891 L 980.719 542.891 L 980.719 542.891 Q 979.547 538.984 979.547 533.125 L 979.547 533.125 L 979.547 504.902 L 967.975 504.902 L 967.975 497.188 L 979.547 497.188 L 979.547 481.807 L 988.922 481.807 L 988.922 497.188 L 1024.225 497.188 L 1024.225 504.902 L 988.922 504.902 L 988.922 533.125 L 988.922 533.125 Q 988.922 537.813 989.63 540.352 L 989.63 540.352 L 989.63 540.352 Q 990.338 542.891 991.9 544.063 L 991.9 544.063 L 991.9 544.063 Q 993.463 545.234 996.026 545.43 L 996.026 545.43 L 996.026 545.43 Q 998.59 545.625 1002.301 545.625 L 1002.301 545.625 L 1002.301 545.625 Q 1005.23 545.625 1007.55 545.527 L 1007.55 545.527 L 1007.55 545.527 Q 1009.869 545.43 1011.603 544.917 L 1011.603 544.917 L 1011.603 544.917 Q 1013.336 544.404 1014.557 543.354 L 1014.557 543.354 L 1014.557 543.354 Q 1015.777 542.305 1016.534 540.4 L 1016.534 540.4 L 1016.534 540.4 Q 1017.291 538.496 1017.633 535.591 L 1017.633 535.591 L 1017.633 535.591 Q 1017.975 532.686 1017.975 528.438 L 1017.975 528.438 L 1017.975 528.438 Z  M 1103.912 553.438 L 1094.537 553.438 L 1094.537 521.699 L 1094.537 521.699 Q 1094.537 516.621 1093.756 513.13 L 1093.756 513.13 L 1093.756 513.13 Q 1092.975 509.639 1090.631 507.49 L 1090.631 507.49 L 1090.631 507.49 Q 1088.287 505.342 1083.99 504.39 L 1083.99 504.39 L 1083.99 504.39 Q 1079.693 503.438 1072.662 503.438 L 1072.662 503.438 L 1072.662 503.438 Q 1065.045 503.438 1060.187 504.536 L 1060.187 504.536 L 1060.187 504.536 Q 1055.328 505.635 1052.545 507.612 L 1052.545 507.612 L 1052.545 507.612 Q 1049.762 509.59 1048.712 512.373 L 1048.712 512.373 L 1048.712 512.373 Q 1047.662 515.156 1047.662 518.574 L 1047.662 518.574 L 1047.662 553.438 L 1038.287 553.438 L 1038.287 478.438 L 1047.662 478.438 L 1047.662 506.074 L 1047.662 506.074 Q 1048.639 503.779 1050.445 502.119 L 1050.445 502.119 L 1050.445 502.119 Q 1052.252 500.459 1054.62 499.287 L 1054.62 499.287 L 1054.62 499.287 Q 1056.988 498.115 1059.723 497.407 L 1059.723 497.407 L 1059.723 497.407 Q 1062.457 496.699 1065.265 496.309 L 1065.265 496.309 L 1065.265 496.309 Q 1068.072 495.918 1070.782 495.771 L 1070.782 495.771 L 1070.782 495.771 Q 1073.492 495.625 1075.787 495.625 L 1075.787 495.625 L 1075.787 495.625 Q 1082.037 495.625 1086.554 496.382 L 1086.554 496.382 L 1086.554 496.382 Q 1091.07 497.139 1094.22 498.628 L 1094.22 498.628 L 1094.22 498.628 Q 1097.369 500.117 1099.273 502.314 L 1099.273 502.314 L 1099.273 502.314 Q 1101.178 504.512 1102.228 507.417 L 1102.228 507.417 L 1102.228 507.417 Q 1103.277 510.322 1103.619 513.911 L 1103.619 513.911 L 1103.619 513.911 Q 1103.961 517.5 1103.961 521.699 L 1103.961 521.699 L 1103.912 553.438 L 1103.912 553.438 Z  M 1149.273 554.512 L 1149.273 554.512 L 1149.273 554.512 Q 1139.898 554.512 1133.355 553.218 L 1133.355 553.218 L 1133.355 553.218 Q 1126.813 551.924 1122.711 548.75 L 1122.711 548.75 L 1122.711 548.75 Q 1118.609 545.576 1116.754 540.254 L 1116.754 540.254 L 1116.754 540.254 Q 1114.898 534.932 1114.898 526.875 L 1114.898 526.875 L 1114.898 526.875 Q 1114.898 517.646 1116.754 511.616 L 1116.754 511.616 L 1116.754 511.616 Q 1118.609 505.586 1122.711 502.021 L 1122.711 502.021 L 1122.711 502.021 Q 1126.813 498.457 1133.355 497.041 L 1133.355 497.041 L 1133.355 497.041 Q 1139.898 495.625 1149.273 495.625 L 1149.273 495.625 L 1149.273 495.625 Q 1155.963 495.625 1160.87 496.602 L 1160.87 496.602 L 1160.87 496.602 Q 1165.777 497.578 1169.269 499.434 L 1169.269 499.434 L 1169.269 499.434 Q 1172.76 501.289 1174.933 503.926 L 1174.933 503.926 L 1174.933 503.926 Q 1177.105 506.563 1178.351 509.468 L 1178.351 509.468 L 1178.351 509.468 Q 1179.596 512.373 1180.06 516.279 L 1180.06 516.279 L 1180.06 516.279 Q 1180.523 520.186 1180.523 524.531 L 1180.523 524.531 L 1179.742 527.656 L 1124.273 527.656 L 1124.273 527.656 Q 1124.273 534.102 1125.543 538.228 L 1125.543 538.228 L 1125.543 538.228 Q 1126.813 542.354 1129.742 544.258 L 1129.742 544.258 L 1129.742 544.258 Q 1132.672 546.162 1137.457 546.675 L 1137.457 546.675 L 1137.457 546.675 Q 1142.242 547.188 1149.273 547.188 L 1149.273 547.188 L 1149.273 547.188 Q 1155.719 547.188 1159.942 546.821 L 1159.942 546.821 L 1159.942 546.821 Q 1164.166 546.455 1166.656 545.43 L 1166.656 545.43 L 1166.656 545.43 Q 1169.146 544.404 1170.147 542.573 L 1170.147 542.573 L 1170.147 542.573 Q 1171.148 540.742 1171.148 537.813 L 1171.148 537.813 L 1180.523 537.813 L 1180.523 537.813 Q 1180.523 542.354 1178.937 545.552 L 1178.937 545.552 L 1178.937 545.552 Q 1177.35 548.75 1173.688 550.728 L 1173.688 550.728 L 1173.688 550.728 Q 1170.025 552.705 1164.044 553.608 L 1164.044 553.608 L 1164.044 553.608 Q 1158.063 554.512 1149.273 554.512 Z  M 1149.273 503.438 L 1149.273 503.438 L 1149.273 503.438 Q 1144.586 503.438 1140.899 503.633 L 1140.899 503.633 L 1140.899 503.633 Q 1137.213 503.828 1134.454 504.487 L 1134.454 504.487 L 1134.454 504.487 Q 1131.695 505.146 1129.742 506.392 L 1129.742 506.392 L 1129.742 506.392 Q 1127.789 507.637 1126.593 509.321 L 1126.593 509.321 L 1126.593 509.321 Q 1125.396 511.006 1124.835 514.058 L 1124.835 514.058 L 1124.835 514.058 Q 1124.273 517.109 1124.273 521.406 L 1124.273 521.406 L 1171.148 521.406 L 1171.148 521.406 Q 1171.148 515.693 1169.928 512.446 L 1169.928 512.446 L 1169.928 512.446 Q 1168.707 509.199 1166.07 507.1 L 1166.07 507.1 L 1166.07 507.1 Q 1163.434 505 1159.283 504.219 L 1159.283 504.219 L 1159.283 504.219 Q 1155.133 503.438 1149.273 503.438 Z  M 1249.273 515.498 L 1241.461 515.498 L 1241.461 515.498 Q 1241.461 511.982 1240.948 509.663 L 1240.948 509.663 L 1240.948 509.663 Q 1240.436 507.344 1238.531 505.952 L 1238.531 505.952 L 1238.531 505.952 Q 1236.627 504.561 1232.892 503.999 L 1232.892 503.999 L 1232.892 503.999 Q 1229.156 503.438 1222.711 503.438 L 1222.711 503.438 L 1222.711 503.438 Q 1216.412 503.438 1212.457 504.536 L 1212.457 504.536 L 1212.457 504.536 Q 1208.502 505.635 1206.256 507.637 L 1206.256 507.637 L 1206.256 507.637 Q 1204.01 509.639 1203.204 512.422 L 1203.204 512.422 L 1203.204 512.422 Q 1202.398 515.205 1202.398 518.623 L 1202.398 518.623 L 1202.398 553.438 L 1193.023 553.438 L 1193.023 497.188 L 1202.398 497.188 L 1202.398 506.123 L 1202.398 506.123 Q 1202.887 504.609 1204.205 502.778 L 1204.205 502.778 L 1204.205 502.778 Q 1205.523 500.947 1208.209 499.36 L 1208.209 499.36 L 1208.209 499.36 Q 1210.895 497.773 1215.167 496.699 L 1215.167 496.699 L 1215.167 496.699 Q 1219.439 495.625 1225.836 495.625 L 1225.836 495.625 L 1225.836 495.625 Q 1233.16 495.625 1237.75 496.919 L 1237.75 496.919 L 1237.75 496.919 Q 1242.34 498.213 1244.903 500.728 L 1244.903 500.728 L 1244.903 500.728 Q 1247.467 503.242 1248.37 506.953 L 1248.37 506.953 L 1248.37 506.953 Q 1249.273 510.664 1249.273 515.498 L 1249.273 515.498 L 1249.273 515.498 Z " fill="rgb(255,255,255)"/></svg>
